DVA
CUT[Was wollen wir singen und heben an
    Was von dem himmlischen Ackersmann]
REG[Europa, Mitteleuropa, Deutschland, Westfalen, Muenster]
KEY[D0265  08 Ab 3/4]
MEL[-5_  1__2_  3__4_  3__2_  1__
    3_  2_3_2_  -7_.-7-7_  2_1_-6_  -7__
    -5_  -6_-5_-2_  -5__
    -5_  1__2_  3__4_  3__2_  1__ //] >>
FCT[geistliches Lied]
CMT[Inzipit = Variante zum Lied (?); Variante zu D0018 ??]
